resources/icons/16px/cell-tower.svg

<svg xmlns="http://www.w3.org/2000/svg" viewBox="0 0 16 16">
  <path d="M8.97 6.76c-.01-.05-.04-.08-.06-.13s-.03-.1-.05-.15c.08-.14.14-.3.14-.48 0-.55-.45-1-1-1s-1 .45-1 1c0 .18.06.34.14.48-.03.05-.03.1-.05.15s-.05.08-.06.13l-2 8c-.13.54.19 1.08.73 1.21a.995.995 0 0 0 1.21-.73L7.53 13h.94l.56 2.24a1 1 0 0 0 1.94-.48zM3.72 1.7C4.1 1.3 4.09.67 3.7.28S2.67-.09 2.28.3c-3.05 3.12-3.05 8.28 0 11.4a.996.996 0 1 0 1.43-1.39c-2.28-2.35-2.28-6.27.01-8.61M11.6 3.2c-.44-.33-1.07-.24-1.4.2s-.24 1.07.2 1.4c.43.32.53 1.96-.04 2.43-.42.35-.48.98-.13 1.41.35.42.98.48 1.41.13 1.59-1.33 1.39-4.5-.04-5.57"/>
  <path d="M13.72.3c-.39-.4-1.02-.4-1.41-.02s-.41 1.02-.03 1.42c2.29 2.34 2.29 6.26 0 8.6-.39.39-.38 1.03.02 1.41s1.03.38 1.41-.02c3.05-3.11 3.05-8.27.01-11.39M5.4 7.23c-.57-.47-.47-2.11-.04-2.43.44-.33.53-.96.2-1.4s-.96-.53-1.4-.2c-1.44 1.07-1.63 4.24-.04 5.57.42.35 1.05.3 1.41-.13.35-.42.29-1.06-.13-1.41"/>
</svg>

<?xml version="1.0" encoding="utf-8"?>
<!-- Generator: Adobe Illustrator 18.0.0, SVG Export Plug-In . SVG Version: 6.00 Build 0)  -->
<svg version="1.1" id="Layer_1" xmlns="http://www.w3.org/2000/svg" xmlns:xlink="http://www.w3.org/1999/xlink" x="0px" y="0px"
	 viewBox="0 0 16 16" enable-background="new 0 0 16 16" xml:space="preserve">
<g id="cell_tower_2_">
	<path d="M8.97,6.76C8.96,6.71,8.93,6.68,8.91,6.63c-0.02-0.05-0.03-0.1-0.05-0.15C8.94,6.34,9,6.18,9,6c0-0.55-0.45-1-1-1
		S7,5.45,7,6c0,0.18,0.06,0.34,0.14,0.48c-0.03,0.05-0.03,0.1-0.05,0.15C7.07,6.68,7.04,6.71,7.03,6.76l-2,8
		c-0.13,0.54,0.19,1.08,0.73,1.21c0.54,0.13,1.08-0.19,1.21-0.73L7.53,13h0.94l0.56,2.24c0.13,0.54,0.68,0.86,1.21,0.73
		c0.54-0.13,0.86-0.68,0.73-1.21L8.97,6.76z"/>
	<path d="M3.72,1.7C4.1,1.3,4.09,0.67,3.7,0.28S2.67-0.09,2.28,0.3c-3.05,3.12-3.05,8.28,0,11.4c0.39,0.4,1.02,0.4,1.41,0.02
		s0.4-1.02,0.02-1.41C1.43,7.96,1.43,4.04,3.72,1.7z"/>
	<path d="M11.6,3.2c-0.44-0.33-1.07-0.24-1.4,0.2c-0.33,0.44-0.24,1.07,0.2,1.4c0.43,0.32,0.53,1.96-0.04,2.43
		c-0.42,0.35-0.48,0.98-0.13,1.41c0.35,0.42,0.98,0.48,1.41,0.13C13.23,7.44,13.03,4.27,11.6,3.2z"/>
	<path d="M13.72,0.3c-0.39-0.4-1.02-0.4-1.41-0.02S11.9,1.3,12.28,1.7c2.29,2.34,2.29,6.26,0,8.6c-0.39,0.39-0.38,1.03,0.02,1.41
		s1.03,0.38,1.41-0.02C16.76,8.58,16.76,3.42,13.72,0.3z"/>
	<path d="M5.4,7.23C4.83,6.76,4.93,5.12,5.36,4.8c0.44-0.33,0.53-0.96,0.2-1.4S4.6,2.87,4.16,3.2C2.72,4.27,2.53,7.44,4.12,8.77
		c0.42,0.35,1.05,0.3,1.41-0.13C5.88,8.22,5.82,7.58,5.4,7.23z"/>
</g>
</svg>
